assets/instructors-pics/female.svg

<svg xmlns="http://www.w3.org/2000/svg" width="532" height="532" viewBox="0 0 532 532" xmlns:xlink="http://www.w3.org/1999/xlink"><g><polygon points="297.05536 387.22083 309.71625 308.09024 224.2552 273.27277 211.59431 393.55127 297.05536 387.22083" fill="#a0616a"/><path d="M382.94672,504.16492c-7.33743,3.57727-14.81442,6.80649-22.40332,9.67133-15.17813,5.74329-30.84525,10.07666-46.91769,12.97015-15.70908,2.83618-31.83749,4.27606-47.96591,4.27606-21.78879,0-43.45168-2.61371-64.40176-7.7851-8.20377-2.01178-16.47781-4.47125-24.61163-7.3374-.85269-.30707-1.71902-.6142-2.57172-.92267-10.09067-3.66052-20.01379-7.9516-29.5592-12.80093-1.28603-.64285-2.57172-1.30069-3.85741-1.99951-1.42558-.7261-2.83717-1.49451-4.26276-2.29156-1.81696-.99225-3.61992-2.02679-5.4229-3.07501-6.03741-3.49402-11.97723-7.26782-17.65159-11.19449l-.37738-.25113c-.33541-.23749-.67082-.46133-.99225-.69879,.2095-1.10416,.40536-2.11142,.58689-3.0054,.6988-3.50766,1.16012-5.43619,1.16012-5.43619l38.26627-79.04932,10.66391-22.02594,5.19905-2.13873,39.27284-16.14206h95.98743l30.28601,12.52249s.1539,.57324,.46133,1.6774c3.01871,10.83145,20.62866,72.32608,47.95193,132.49271,.37704,.83801,.76874,1.69104,1.15979,2.54407l-.00006,.00003Z" fill="#6c63ff"/><circle cx="275.45874" cy="246.37804" r="87.14982" fill="#a0616a"/><path d="M167.97998,370.32001l-.14996,.75-26.57001,126.32996-.22998,1.10004-.37006,1.73999c-1.42999-.72998-2.83997-1.5-4.25995-2.28998-1.82001-1-3.62-2.03003-5.43005-3.08002-6.02997-3.48999-11.96997-7.27002-17.64996-11.19l-.38-.26001c-.33002-.22998-.66998-.46002-.98999-.69-4.34003-3.02997-8.57001-6.19-12.70001-9.45001-.03003-.01996-.04999-.03998-.08002-.07001-7.37-5.94-14.46997-12.32996-21.26001-19.12-4.37994-4.38-8.58997-8.88995-12.62-13.51996l.61005-2.56,.06-.26001,.75995-3.26001c6.76001-28.54999,29.63-50.46002,58.44-55.97998l38.28003-7.33002,4.53998-.85999Z" fill="#6c63ff"/><path d="M439.39618,467.22528c-11.27878,9.60172-23.36792,18.29581-36.12823,25.92667-1.24371,.75476-2.51575,1.49451-3.78745,2.23563-5.42255,3.13095-10.94336,6.05173-16.53378,8.77734-7.33743,3.57727-14.81442,6.80649-22.40332,9.67133l-.58722-2.76791-30.00653-142.6813,3.88538,.74112,38.93744,7.46298c28.80444,5.52081,51.68341,27.43481,58.43362,55.98746l7.44934,31.5444,.74078,3.10229h-.00003Z" fill="#6c63ff"/><path d="M375.81912,269.67435c-2.26428,8.44159-13.65463,46.16327-42.82281,54.10123-5.72998,1.56549-19.39859,3.36844-15.77869,0,.82437-.7684,1.62109-1.52316,2.41782-2.26428,31.65561-29.76871,44.56949-47.96487,38.67163-88.35622-3.74582-25.71648-46.40042-49.07042-70.39752-51.39066-10.11865-.97723-23.0325,2.44582-31.55768,11.26546-14.07397,14.53429-11.75407,59.14709-19.55247,85.3522-2.09641,7.01532-4.90561,12.71765-8.94489,16.16937-2.51576,2.15237-4.12286-.58688-5.31097-5.07315-2.5294-9.5321-3.18623-26.98715-6.77818-22.0546-10.38411,14.29816-.4893,33.24908,2.50177,40.5592,.61485,1.49588,1.24371,2.93442,1.87257,4.30472v.01364c.36339,.78207,.74077,1.56549,1.10416,2.30658v.01364c9.97874,20.34854,21.97031,27.63,32.53629,40.30673,4.15086,4.96124,8.0782,10.73315,11.5862,18.44867,2.40384,5.28333,4.13687,10.59396,5.32495,15.8063,6.05139,26.1355-1.13214,49.88113-3.07501,56.33823-4.06689,13.44513-11.05493,36.54657-31.55769,49.5863-25.74413,16.38092-49.23761,1.94354-60.47441,17.49872-.13989,.18152-.26579,.36304-.39137,.54456-.41936,.62921-.79672,1.25836-1.11815,1.88623-10.09067-3.66052-20.01379-7.9516-29.5592-12.80093-1.28603-.64285-2.57172-1.30069-3.85741-1.99951-1.42558-.7261-2.83717-1.49451-4.26276-2.29156-.05595-1.09052-.11192-2.17966-.15388-3.28384-.82437-18.90997,.41936-39.69254,5.12944-60.41913,3.01871-13.23492,6.00977-26.35931,10.59361-39.00739,2.99107-8.24506,6.6526-16.2963,11.47427-24.05273,3.85776-6.23325,8.44159-12.285,14.00403-18.09927,12.21539-12.75998,23.07481-18.08426,24.79384-31.55804,2.45946-19.23071-17.56799-25.0163-24.79384-54.10123-4.93324-19.88721-10.09067-48.55177-5.08713-67.86711,4.72408-18.25212,8.83296-34.0871,22.54355-49.60133,3.29816-3.71785,30.36993-29.57355,61.73212-33.82232,14.45102-1.94218,27.33725,16.56245,44.80731,20.54507,20.0834,4.57088,31.58566,7.18456,42.82248,15.77902,18.99359,14.50697,24.34616,36.19852,29.30774,56.35188,3.88538,15.76537,8.9169,36.1562,2.25027,60.86543l.00003,.00012Z" fill="#2f2e41"/></g><path d="M454.09003,77.90997C403.84998,27.66998,337.04999,0,266,0S128.15002,27.66998,77.90997,77.90997C27.66998,128.14996,0,194.95001,0,266c0,64.84998,23.04999,126.15997,65.28998,174.57001,4.03003,4.63,8.24005,9.13995,12.62,13.51996,6.79004,6.79004,13.89001,13.17999,21.26001,19.12,.03003,.03003,.04999,.05005,.08002,.07001,47.10999,38.04999,105.34002,58.72003,166.74999,58.72003,71.04999,0,137.84998-27.67004,188.09003-77.91003,50.23999-50.23999,77.90997-117.03998,77.90997-188.08997s-27.66998-137.85004-77.90997-188.09003Zm-15.15002,387.39001c-17.07001,14.84998-36.07001,27.52997-56.56,37.63-7.19,3.54999-14.56,6.77997-22.09998,9.66998-29.29004,11.23999-61.08002,17.40002-94.28003,17.40002-32.03998,0-62.76001-5.73999-91.19-16.23999-11.66998-4.30005-22.95001-9.41003-33.77997-15.26001-1.59003-.85999-3.17004-1.73004-4.74005-2.62-8.25995-4.67999-16.25-9.79004-23.91998-15.31-17.14001-12.30005-32.75-26.60004-46.46997-42.56C26.09003,391.76996,2,331.64996,2,266,2,120.42999,120.42999,2,266,2s264,118.42999,264,264c0,79.47998-35.29999,150.87-91.06,199.29999Z" fill="#3f3d56"/></svg>

<svg width="532" height="532" viewBox="0 0 532 532" fill="none" xmlns="http://www.w3.org/2000/svg">
<g clip-path="url(#clip0_112_2)">
<circle cx="266" cy="266" r="265" fill="white" stroke="black" stroke-width="2"/>
<path d="M297.055 387.221L309.716 308.09L224.255 273.273L211.594 393.551L297.055 387.221Z" fill="#A0616A"/>
<path d="M382.947 504.165C375.609 507.742 368.132 510.971 360.543 513.836C345.365 519.58 329.698 523.913 313.626 526.806C297.917 529.643 281.788 531.082 265.66 531.082C243.871 531.082 222.208 528.469 201.258 523.297C193.054 521.286 184.78 518.826 176.646 515.96C175.794 515.653 174.927 515.346 174.075 515.037C163.984 511.377 154.061 507.086 144.515 502.236C143.229 501.594 141.944 500.936 140.658 500.237C139.232 499.511 137.821 498.742 136.395 497.945C134.578 496.953 132.775 495.918 130.972 494.87C124.935 491.376 118.995 487.602 113.321 483.676L112.943 483.425C112.608 483.187 112.273 482.963 111.951 482.726C112.161 481.622 112.357 480.614 112.538 479.72C113.237 476.213 113.698 474.284 113.698 474.284L151.964 395.235L162.628 373.209L167.827 371.07L207.1 354.928H303.088L333.374 367.451C333.374 367.451 333.528 368.024 333.835 369.128C336.854 379.96 354.464 441.454 381.787 501.621C382.164 502.459 382.556 503.312 382.947 504.165Z" fill="#6C63FF"/>
<path d="M275.459 333.528C323.59 333.528 362.609 294.51 362.609 246.378C362.609 198.247 323.59 159.228 275.459 159.228C227.327 159.228 188.309 198.247 188.309 246.378C188.309 294.51 227.327 333.528 275.459 333.528Z" fill="#A0616A"/>
<path d="M167.98 370.32L167.83 371.07L141.26 497.4L141.03 498.5L140.66 500.24C139.23 499.51 137.82 498.74 136.4 497.95C134.58 496.95 132.78 495.92 130.97 494.87C124.94 491.38 119 487.6 113.32 483.68L112.94 483.42C112.61 483.19 112.27 482.96 111.95 482.73C107.61 479.7 103.38 476.54 99.2501 473.28C99.22 473.26 99.2001 473.24 99.1701 473.21C91.8001 467.27 84.7001 460.88 77.91 454.09C73.5301 449.71 69.3201 445.2 65.29 440.57L65.9001 438.01L65.9601 437.75L66.72 434.49C73.48 405.94 96.35 384.03 125.16 378.51L163.44 371.18L167.98 370.32Z" fill="#6C63FF"/>
<path d="M439.396 467.225C428.117 476.827 416.028 485.521 403.268 493.152C402.024 493.907 400.752 494.646 399.481 495.388C394.058 498.519 388.537 501.439 382.947 504.165C375.609 507.742 368.132 510.971 360.543 513.836L359.956 511.068L329.95 368.387L333.835 369.128L372.773 376.591C401.577 382.112 424.456 404.026 431.206 432.579L438.655 464.123L439.396 467.225Z" fill="#6C63FF"/>
<path d="M375.819 269.674C373.555 278.116 362.164 315.838 332.996 323.776C327.266 325.341 313.598 327.144 317.217 323.776C318.042 323.007 318.839 322.252 319.635 321.511C351.291 291.743 364.205 273.546 358.307 233.155C354.561 207.439 311.906 184.085 287.909 181.764C277.791 180.787 264.877 184.21 256.352 193.03C242.278 207.564 244.598 252.177 236.799 278.382C234.703 285.397 231.894 291.1 227.854 294.551C225.339 296.704 223.731 293.965 222.543 289.478C220.014 279.946 219.357 262.491 215.765 267.424C205.381 281.722 215.276 300.673 218.267 307.983C218.882 309.479 219.511 310.917 220.14 312.288V312.301C220.503 313.083 220.88 313.867 221.244 314.608V314.621C231.222 334.97 243.214 342.251 253.78 354.928C257.931 359.889 261.858 365.661 265.366 373.377C267.77 378.66 269.503 383.971 270.691 389.183C276.743 415.319 269.559 439.064 267.616 445.521C263.549 458.967 256.561 482.068 236.058 495.108C210.314 511.489 186.821 497.051 175.584 512.606C175.444 512.788 175.318 512.969 175.193 513.151C174.773 513.78 174.396 514.409 174.075 515.037C163.984 511.377 154.061 507.086 144.515 502.236C143.229 501.593 141.944 500.936 140.658 500.237C139.232 499.511 137.821 498.742 136.395 497.945C136.339 496.855 136.283 495.766 136.241 494.661C135.417 475.751 136.661 454.969 141.371 434.242C144.389 421.007 147.38 407.883 151.964 395.235C154.955 386.99 158.617 378.939 163.439 371.182C167.296 364.949 171.88 358.897 177.443 353.083C189.658 340.323 200.517 334.999 202.236 321.525C204.696 302.294 184.668 296.509 177.443 267.424C172.509 247.536 167.352 218.872 172.355 199.556C177.08 181.304 181.188 165.469 194.899 149.955C198.197 146.237 225.269 120.382 256.631 116.133C271.082 114.191 283.968 132.695 301.438 136.678C321.522 141.249 333.024 143.862 344.261 152.457C363.255 166.964 368.607 188.655 373.569 208.809C377.454 224.574 382.486 244.965 375.819 269.674Z" fill="#2F2E41"/>
</g>
<defs>
<clipPath id="clip0_112_2">
<rect width="532" height="532" fill="white"/>
</clipPath>
</defs>
</svg>
